X:1
T:Penelope - Mundy
T:#
%%score [ 1 { 2 | 3 } 4 5 ]
L:1/8
Q:1/4=120
M:4/2
K:F
V:1 treble nm="Soprano" snm="S"
V:2 treble nm="Alto I" snm="A"
V:3 treble 
V:4 treble-8 nm="Tenor" snm="T"
V:5 bass nm="Bass" snm="B"
V:1
"^Penelope""^John Mundy\n(c. 1555-1630)" F4 A2 G2 F4 z2 F2 | B2 G2 z2 G2 B2 G2 A2 =B2 | %2
w: Pe- ne- lo- pe, that|long- ed, that long- ed for the|
 c6 _e2 d4 c2 c2- |[M:4/2] c2 =B2 c2 c2 z4 z4 | z4 z4 z4 c3 c | d2 e2 f4 z2 d4 ^c2 | d8 z4 c4 | %7
w: sight, the sight Of her|* U- lys- ses,|wand'- ring|all too long, all too|long, Felt|
 g2 f2 e4 z2 c2 f2 e2 | d8 z2 c2 _e2 d2 | c6 c2 f4 e2 (d2- | dc B2) d4 =B4 z4 | %11
w: ne- ver joy, felt ne- ver|joy, felt ne- ver|joy, where- in she took|* * * de- light,|
 z4 z2 c2 f3 e d2 c2 | _e4 d4 c6 c2 | c8 z2 c2 d2 c2 | f4 z4 z2 B2 d2 B2 | f4 z2 d2 e2 c2 g4 | %16
w: Al- though she liv'd in|great- est joys a-|mong. So I, poor|wretch, so I, poor|wretch, so I, poor wretch,|
 z2 d2 d4 e2 f4 e2 | f4 (e2 d2) (^c2 d4) c2 | d8 d4 f2 d2 | c6 d2 B6 c2 | A2 (G2 A4) G4 z2 G2 | %21
w: so I, poor wretch, pos-|sess- ing * that * I|crave, Both live and|lack by wrong of|thee I * have: Then|
 c3 c c6 c2 e2 d2 | f2 e2 d6 c4 d2- | d2 ^c2 d4 z2 d4 =c2- | c2 (A2 =B4) c4 c2 g2- | %25
w: blame me not, al- though to|heavens I cry, to heavens|* I cry, to heavens,|* I * cry, to heavens|
 g2 e2 d4 z4 z2 d2 | e3 f g4 f4 e4 | z4 z2 c2 d3 e f4- | f4 d4 _e3 d c2 B2 | A8 z4 z4 | %30
w: * I cry, And|pray the gods, the gods,|and pray the gods|* that short- ly I might|die,|
 z4 z4[Q:1/4=118] G4[Q:1/4=114] c4- | %31
w: that short\-|
[Q:1/4=111] c2[Q:1/4=109] B2[Q:1/4=107] A2[Q:1/4=105] G2[Q:1/4=105] A16 |] %32
w: * ly I might die.|
V:2
 F4 F2 E2 F8 | z2 G2 B2 G2 z2 C2 F2 D2 | _E2 F2 G4 G6 G2 |[M:4/2] F2 D2 E2 E2 F4 F4 | %4
w: Pe- ne- lo- pe,|that long- ed, that long- ed|for the sight, for the|sight of her U- lys- ses,|
 z4 z4 F3 G A2 F2 | B4 A3 B c2 B2 A4 | ^F4 F4 G4 z4 | G4 c2 B2 A2 G2 F2 F2 | B2 A2 G2 F2 E2 F2 G4 | %9
w: wand'- ring all too|long, wand'- ring all too long,|all too long,|Felt ne- ver, ne- ver joy felt|ne- ver joy where- in she took|
 E4 A6 B2 c3 (B | A2) G4 ^F2 G8 | z4 z4 z2 F2 B2 A2 | G6 F2 E2 C2 F4- | F4 E4 F8 | z2 F2 A2 F2 B8 | %15
w: de- light, where- in she|* took de- light,|Al- though she|liv'd in great- est joys|* a- mong.|So I, poor wretch,|
 F8 G8 | z2 G2 B2 G2 c2 (A2 B4) | c4 B4 A6 G2 | ^F8 B4 B2 B2 | A6 A2 G8 | ^F2 G4 F2 G8 | %21
w: poor wretch,|so I, poor wretch, pos\- *|sess- ing that I|crave, Both live and|lack, by wrong|of thee I have:|
 z2 G2 A3 A A2 c2 c2 =B2 | c2 c2 =B4 G2 A4 (G2 | A4) ^F4 F2 D4 G2 | F4 z2 D2 E3 F G4 | %25
w: Then blame me not, al- though to|heavens I cry, to heavens I|* cry, to heavens I|cry, And pray the gods,|
 z4 z2 G2 =B3 c d2 B2 | c6 =B2 A4 G4 | F16 | z4 F8 E4 | F4 z4 F4 _B4- | B2 A2 G2 F2 (E4 F4- | %31
w: and pray the gods that|short- ly I might|die,|I might|die, and pray|* that short- ly I *|
 F4) E4 F16 |] %32
w: * might die.|
V:3
 C4 C2 C2 C6 C2 | G4 _E2 z2 z4 D4 | G2 F2 _E2 C2 D2 D2 E4 |[M:4/2] D4 C2 C2 C3 C D2 C2 | %4
w: Pe- ne- lo- pe, that|long- ed, that|long- ed for the sight Of her|U- lys- ses, wand'- ring all too|
 F4 z2 F4 D2 E2 C2 | G4 C2 F2 A2 (G2 E4) | D4 z4 D4 G2 F2 | E8 E4 D4 | F8 z4 C4 | G4 F4 F4 G2 F2- | %10
w: long, wand'- ring all too|long, wand'- ring all too *|long, Felt ne- ver|joy, ne- ver|joy, where-|in she took de- light,|
 F2 D2 D2 D2 D4 z2 D2 | F2 (D2 C4) D6 A,2 | B,2 G,2 B,2 A,2 G,2 G,2 C4- | C2 B,2 (G,4 A,6) C2 | %14
w: * she took de- light, Al-|though she * liv'd, al-|though she liv'd in great- est joys|* a- mong. * So|
 D2 C2 F4 z4 z2 B,2 | D2 B,2 F4 E8 | D4 G,4 z4 G4 | A4 (G2 F2) E2 (D2 E4) | D8 F4 F2 F2 | %19
w: I, poor wretch, so|I, poor wretch, poor|* wretch, pos-|sess- ing * that I *|crave, Both live and|
 F6 F2 D6 _E2 | D4 D4 D8 | z2 E2 F3 F F2 F2 G2 G2 | A2 G2 G4 z2 C2 E2 D2 | F2 E2 D4 D2 F4 E2 | %24
w: lack, by wrong of|thee I have:|Then blame me not, al- though to|heavens I cry, al- though to|heavens I cry, to heavens I|
 D8 z2 C2 E3 F | G8 G4 F2 D2 | G4 z2 G2 (C3 D E4) | D4 C4 z2 B,2 D3 E | F8 z4 z4 | C4 F6 E2 D2 C2 | %30
w: cry, And pray the|gods, and pray the|gods, and pray * *|the gods, and pray the|gods|that short- ly I might|
 D8 C8- | C4 C4 C16 |] %32
w: die, I|* might die.|
V:4
 A4 F2 G2 A2 F2 c2 A2 | G8 G4 F4 | _E2 E2 C4 G2 G2 G4 |[M:4/2][K:treble-8] A2 G2 G2 G2 A4 A4 | %4
w: Pe- ne- lo- pe, that long- ed|for her U-|lys- ses, that long- ed for|her U- lys- ses, wand'- ring,|
 A3 B c2 A2 d4 c4 | (B2 G2) A4 z4 z4 | A4 d2 c2 =B4 z4 | z4 G4 c3 (_B A4) | D2 F2 B2 A2 G4 G4 | %9
w: wand'- ring all too long, all|too * long|Felt ne- ver joy,|felt ne- ver *|joy, felt ne- ver joy, where-|
 G4 A4 d4 G2 A2- | A2 (B2 A4) G4 G2 B2 | A2 B4 A2 B4 F4 | G4 D4 E4 (A4 | G8) F6 G2 | %14
w: in, where- in she took|* de\- * light, Al- though,|al- though she liv'd in|great- est joys a\-|* mong, a-|
 A4 z2 F2 G2 F2 B4 | z2 F2 B2 A2 c4 z2 G2 | B2 G2 d4 c4 B4 | A4 B4 z4 A4 | A8 d4 d2 B2 | %19
w: mong. So I, poor wretch,|so I, poor wretch, so|I, poor wretch, pos- sess-|ing that I|crave, Both live and|
 c4 A4 B4 d2 c2- | c2 (B2 A4) B8 | z2 c2 A2 F2 c2 A2 G2 G2 | c2 c2 d4 z4 z2 d2 | %23
w: lack, by wrong of thee|* I * have:|Then blame me not, al- though to|heavens I cry, to|
 e2 A2 A4 A2 B4 G2 | A4 d4 c8 | z2 G2 =B3 c d2 (e2 d4) | c4 z2 G2 A3 B c4 | (B4 A4) B8 | %28
w: heavens I cry, al- though to|heavens I cry,|And pray the gods, the *|gods, and pray the gods,|the * gods,|
 z2 F2 A3 B c4 c4 | c3 B A2 G2 F4 F4 | B6 A2 G4 (A4 | G8) F16 |] %32
w: and pray the gods that|short- ly I might die, that|short- ly I might|* die.|
V:5
 F,4 F,2 C,2 F,4 F,4 | _E,4 E,4 E,4 D,4 | C,4 C,4 =B,,4 C,4 |[M:4/2] F,2 G,2 C,2 C,2 F,4 F,4 | %4
w: Pe- ne- lo- pe, that|long- ed for the|sight, the sight Of|her U- lys- ses, wand'- ring,|
 F,3 G, A,2 F,2 B,4 A,4 | G,4 F,6 G,2 A,3 A, | D,4 D,4 G,2 F,2 E,4 | C,8 C,4 D,4 | B,,8 C,6 D,2 | %9
w: wand'- ring all too long, too|long, wand'- ring all too|long, Felt ne- ver joy,|felt ne- ver|joy, ne- ver|
 E,2 (C,2 F,4) D,4 E,2 F,2- | F,2 G,2 D,4 z2 G,2 B,2 G,2 | F,8 B,,6 F,2 | _E,4 B,,4 C,4 (A,,4 | %13
w: joy where\- * in she took|* de- light, Al- though she|liv'd, liv'd in|great- est joys a\-|
 C,8) F,8 | F,8 B,,8 | B,,4 D,4 z2 C,2 E,2 C,2 | G,6 B,2 A,4 G,4 | F,4 (G,4 A,8) | %18
w: * mong.|so I,|poor wretch, so I, poor|wretch, pos- sess- ing|that I *|
 D,8 B,,4 B,,2 B,,2 | F,6 D,2 G,6 C,2 | D,4 D,4 G,8 | z2 C,2 F,3 F, F,2 F,2 C,2 G,2 | %22
w: crave, Both live and|lack, by wrong of|thee I have:|Then blame me not, al- though to|
 F,2 C,2 G,2 G,2 B,2 A,2 C2 (B,2 | A,4) D,4 D,2 B,,4 C,2 | (F,4 G,4) C,4 z2 C,2 | %25
w: heavens I cry, al- though to heavens I|* cry, to heavens I|* * cry, And|
 E,3 F, G,6 E,2 F,2 G,2 | C,8 z4 z2 C,2 | D,3 E, F,4 B,,8 | D,4 D,4 C,4 C,4 | %29
w: pray the gods, and pray the|gods, and|pray the gods, and|pray the gods that|
 F,6 E,2 D,2 C,2 B,,4- | B,,4 B,,4 C,4 A,,4 | C,6 C,2 F,16 |] %32
w: short- ly I might die,|* that short- ly|I might die.|

